build/img/icons/mail.svg

<svg width="24" height="24" viewBox="0 0 24 24" fill="none" xmlns="http://www.w3.org/2000/svg">
<path d="M20 4H6C4.897 4 4 4.897 4 6V11H6V8L12.4 12.8C12.5732 12.9297 12.7837 12.9998 13 12.9998C13.2163 12.9998 13.4268 12.9297 13.6 12.8L20 8V17H12V19H20C21.103 19 22 18.103 22 17V6C22 4.897 21.103 4 20 4ZM13 10.75L6.666 6H19.334L13 10.75Z" fill="#C4C4C4"/>
<path d="M2 12H9V14H2V12ZM4 15H10V17H4V15ZM7 18H11V20H7V18Z" fill="#C4C4C4"/>
</svg>

<svg width="24" height="24" fill="none" xmlns="http://www.w3.org/2000/svg">
    <path d="M20 4H6c-1.103 0-2 .897-2 2v5h2V8l6.4 4.8a1.001 1.001 0 0 0 1.2 0L20 8v9h-8v2h8c1.103 0 2-.897 2-2V6c0-1.103-.897-2-2-2zm-7 6.75L6.666 6h12.668L13 10.75z" fill="#C4C4C4"/>
    <path d="M2 12h7v2H2v-2zm2 3h6v2H4v-2zm3 3h4v2H7v-2z" fill="#C4C4C4"/>
</svg>
